X:3029
T:Svea kanal
C:anon.
O:Sweden
Z:Transcribed by Frank Nordberg - http://www.musicaviva.com
F:http://abc.musicaviva.com/tunes/sweden/svea-kanal.abc
M:2/4
L:1/8
K:F
FF2A|c4|dd2c|B4|EE2F|G4|cc2B|A4|
FF2A|c4|dd2c|B4|EE2F|G2A2|G2F2|F4|]
W:
W:
W:  From Musica Viva - http://www.musicaviva.com
W:  the Internet center for free sheet music downloads.


